X:1
T:Title
%%score 1 ( 2 3 )
L:1/8
Q:1/4=102
M:4/4
K:D
V:1 treble nm="Grand Piano, Soprano"
V:2 bass nm="Choir Pad, Salvation’s River"
V:3 bass 
V:1
 [DF]4 [CE]D [DF]>[CE] | D2 [Fd]2 [GB] [Gd]3 | [FA]4 [DF]2 D2 | [CE]6 z2 | [DF]4 [CE]D [DF]>[CE] | %5
w: By~Stephen~Collins~~Foster,~1851 * * * *|||||
 D2 [Fd]2 [GB] [Gd]3 | [FA]2 [DF][A,D] [CE]2 [CE]2 | D6 z2 | [DF]4 [CE]D [DF]>[CE] | %9
w: ||||
 D2 [Fd]2 [GB] [Gd]3 | [FA]4 [DF]2 D2 | [CE]6 z2 | [DF]4 [CE]D [DF]>[CE] | D2 [Fd]2 [GB] [Gd]3 | %14
w: |||||
 [FA]2 [DF][A,D] [CE]2 [CE]2 | D6 z2 | [Ec]3 [Ed] [Ee]2 [EA]2 | [FA]3 [GB] [FA]2 [Fd]2 | %18
w: ||||
 [Gd]2 [GB]2 [DG]2 [GB]2 | [FA]8 | [DF]4 [CE]D [DF]>[CE] | D2 [Fd]2 [GB] [Gd]3 | %22
w: ||||
 [FA][FA][DF]D [CE]2 [CE]2 | D8 |] %24
w: ||
V:2
 [D,A,]4 [D,G,][D,F,] [D,A,]>[E,G,] | [D,F,]2 [D,A,]2 G, [G,B,]3 | [D,D]4 [D,A,]2 [B,,^G,]2 | %3
 [A,,A,]6 z2 | [D,A,]4 [D,G,][D,F,] [D,A,]>[D,G,] | [D,F,]2 [D,A,]2 G, [G,B,]3 | %6
 [A,D]2 [A,,A,][A,,F,] [A,,A,]2 [A,,G,]2 | [D,F,]6 z2 | [D,A,]4 [D,G,][D,F,] [D,A,]>[E,G,] | %9
 [D,F,]2 [D,A,]2 G, [G,B,]3 | [D,D]4 [D,A,]2 [B,,^G,]2 | [A,,A,]6 z2 | %12
 [D,A,]4 [D,G,][D,F,] [D,A,]>[D,G,] | [D,F,]2 [D,A,]2 G, [G,B,]3 | %14
 [A,D]2 [A,,A,][A,,F,] [A,,A,]2 [A,,G,]2 | [D,F,]6 z2 | A,3 [A,B,] [A,C]2 [A,C]2 | %17
 [D,D]3 [D,D] [D,D]2 [D,A,]2 | [G,B,]2 [G,D]2 [G,B,]2 [G,D]2 | [D,D]8 | %20
 [D,A,]4 [D,G,][D,F,] [D,A,]>[D,G,] | [D,F,]2 [D,A,]2 G, [G,B,]3 | %22
 [A,D][A,D][A,,A,][A,,F,] A,^G, [A,,=G,]2 | [D,F,]8 |] %24
V:3
 x8 | x8 | x8 | x8 | x8 | x8 | x8 | x8 | x8 | x8 | x8 | x8 | x8 | x8 | x8 | x8 | x8 | x8 | x8 | %19
 x8 | x8 | x8 | z4 A,,2 z2 | x8 |] %24

